build/img/services.svg

<svg width="55" height="276" viewBox="0 0 55 276" fill="none" xmlns="http://www.w3.org/2000/svg">
<path d="M2.5 12.42L2.94366 11.5238L1.5 10.8091L1.5 12.42L2.5 12.42ZM2.5 22.57L1.5 22.57L1.5 23.2037L2.07299 23.4742L2.5 22.57ZM52.9 46.37L52.473 47.2742L53.9 47.9481L53.9 46.37L52.9 46.37ZM52.9 36.22L53.9 36.22L53.9 35.5738L53.3109 35.3083L52.9 36.22ZM26.65 24.39L26.2514 23.4729L24.1795 24.3735L26.2391 25.3017L26.65 24.39ZM52.9 12.98L53.2986 13.8971L53.9 13.6357L53.9 12.98L52.9 12.98ZM52.9 2.2L53.9 2.2L53.9 0.618057L52.471 1.29669L52.9 2.2ZM16.64 19.42L16.1963 20.3162L16.6309 20.5313L17.069 20.3233L16.64 19.42ZM1.5 12.42L1.5 22.57L3.5 22.57L3.5 12.42L1.5 12.42ZM2.07299 23.4742L52.473 47.2742L53.327 45.4658L2.92701 21.6658L2.07299 23.4742ZM53.9 46.37L53.9 36.22L51.9 36.22L51.9 46.37L53.9 46.37ZM53.3109 35.3083L27.0609 23.4783L26.2391 25.3017L52.4891 37.1317L53.3109 35.3083ZM27.0486 25.3071L53.2986 13.8971L52.5014 12.0629L26.2514 23.4729L27.0486 25.3071ZM53.9 12.98L53.9 2.2L51.9 2.2L51.9 12.98L53.9 12.98ZM52.471 1.29669L16.211 18.5167L17.069 20.3233L53.329 3.10331L52.471 1.29669ZM17.0837 18.5238L2.94366 11.5238L2.05634 13.3162L16.1963 20.3162L17.0837 18.5238ZM5.755 84.631L6.56353 84.0426L6.56186 84.0403L5.755 84.631ZM17.41 92.961L17.0978 93.911L18.0935 94.2382L18.3736 93.2283L17.41 92.961ZM20.07 83.371L21.0336 83.6383L21.2935 82.7012L20.3641 82.4152L20.07 83.371ZM12.965 78.646L13.7579 78.0367L13.7579 78.0367L12.965 78.646ZM15.1 59.256L14.4934 58.461L14.4869 58.466L15.1 59.256ZM40.265 59.256L40.8753 58.4638L40.8744 58.4632L40.265 59.256ZM42.435 78.646L41.642 78.0367L41.638 78.042L42.435 78.646ZM35.33 83.371L35.038 82.4146L34.1059 82.6992L34.3664 83.6383L35.33 83.371ZM37.99 92.961L37.0264 93.2283L37.3065 94.2382L38.3022 93.911L37.99 92.961ZM49.645 84.631L48.8381 84.0403L48.8365 84.0426L49.645 84.631ZM50.66 57.016L51.518 56.5023L51.5165 56.4999L50.66 57.016ZM41.455 48.581L41.9043 47.6876L41.9001 47.6855L41.455 48.581ZM13.945 48.581L13.4999 47.6855L13.4957 47.6876L13.945 48.581ZM4.74 57.016L3.88347 56.4999L3.88202 56.5023L4.74 57.016ZM0.449997 70.071C0.449997 76.0284 1.93006 81.0995 4.94813 85.2218L6.56186 84.0403C3.83994 80.3225 2.45 75.687 2.45 70.071L0.449997 70.071ZM4.94647 85.2195C7.94724 89.3425 12.0107 92.2396 17.0978 93.911L17.7222 92.011C13.0093 90.4625 9.30275 87.8062 6.56353 84.0426L4.94647 85.2195ZM18.3736 93.2283L21.0336 83.6383L19.1064 83.1037L16.4464 92.6937L18.3736 93.2283ZM20.3641 82.4152C17.5011 81.5343 15.3183 80.0673 13.7579 78.0367L12.1721 79.2553C14.0184 81.6581 16.5723 83.3411 19.7759 84.3268L20.3641 82.4152ZM13.7579 78.0367C12.2197 76.0348 11.41 73.4072 11.41 70.071L9.41 70.071C9.41 73.7349 10.3037 76.8239 12.1721 79.2553L13.7579 78.0367ZM11.41 70.071C11.41 65.5248 12.8821 62.2432 15.7131 60.046L14.4869 58.466C11.0645 61.1222 9.41 65.0505 9.41 70.071L11.41 70.071ZM15.7066 60.051C18.6332 57.8181 22.5981 56.651 27.7 56.651L27.7 54.651C22.3019 54.651 17.8668 55.8872 14.4934 58.461L15.7066 60.051ZM27.7 56.651C32.8023 56.651 36.7537 57.8183 39.6556 60.0489L40.8744 58.4632C37.523 55.887 33.0977 54.651 27.7 54.651L27.7 56.651ZM39.6547 60.0482C42.5081 62.2464 43.99 65.5275 43.99 70.071L45.99 70.071C45.99 65.0478 44.3219 61.119 40.8753 58.4638L39.6547 60.0482ZM43.99 70.071C43.99 73.4072 43.1803 76.0348 41.6421 78.0367L43.2279 79.2553C45.0963 76.8239 45.99 73.7349 45.99 70.071L43.99 70.071ZM41.638 78.042C40.1034 80.0668 37.9246 81.5332 35.038 82.4146L35.622 84.3274C38.8488 83.3422 41.4066 81.6585 43.232 79.25L41.638 78.042ZM34.3664 83.6383L37.0264 93.2283L38.9536 92.6937L36.2936 83.1037L34.3664 83.6383ZM38.3022 93.911C43.3893 92.2396 47.4528 89.3425 50.4535 85.2195L48.8365 84.0426C46.0972 87.8062 42.3907 90.4625 37.6778 92.011L38.3022 93.911ZM50.4519 85.2218C53.4699 81.0995 54.95 76.0284 54.95 70.071L52.95 70.071C52.95 75.687 51.5601 80.3225 48.8381 84.0403L50.4519 85.2218ZM54.95 70.071C54.95 64.883 53.8198 60.3469 51.518 56.5023L49.802 57.5297C51.8868 61.0118 52.95 65.179 52.95 70.071L54.95 70.071ZM51.5165 56.4999C49.2219 52.6918 46.0094 49.7523 41.9043 47.6876L41.0057 49.4744C44.7872 51.3764 47.7114 54.0602 49.8035 57.5321L51.5165 56.4999ZM41.9001 47.6855C37.7949 45.6451 33.0525 44.641 27.7 44.641L27.7 46.641C32.8009 46.641 37.2284 47.5969 41.0099 49.4765L41.9001 47.6855ZM27.7 44.641C22.3475 44.641 17.6051 45.6451 13.4999 47.6855L14.3901 49.4765C18.1716 47.5969 22.5991 46.641 27.7 46.641L27.7 44.641ZM13.4957 47.6876C9.39058 49.7523 6.17811 52.6918 3.88348 56.4999L5.59652 57.5321C7.68856 54.0602 10.6127 51.3764 14.3943 49.4744L13.4957 47.6876ZM3.88202 56.5023C1.58017 60.3469 0.449997 64.883 0.449997 70.071L2.45 70.071C2.45 65.179 3.51316 61.0118 5.59797 57.5297L3.88202 56.5023ZM2.5 95.8004L2.5 94.8004L1.67814 94.8004L1.51894 95.6067L2.5 95.8004ZM2.815 104.375L3.72712 103.965L3.72536 103.962L2.815 104.375ZM7.645 109.1L7.22009 110.006L7.22009 110.006L7.645 109.1ZM16.08 111.69L16.2847 110.711L16.2722 110.709L16.08 111.69ZM24.025 113.055L23.8895 114.046L23.8895 114.046L24.025 113.055ZM31.935 114L32.0354 113.005L32.0354 113.005L31.935 114ZM38.9 114.595L38.9775 113.598L38.9665 113.598L38.9 114.595ZM44.01 114.98L45.01 114.98L45.01 114.049L44.0812 113.983L44.01 114.98ZM44.01 131.08L44.01 132.08L45.01 132.08L45.01 131.08L44.01 131.08ZM2.49999 131.08L2.49999 130.08L1.49999 130.08L1.49999 131.08L2.49999 131.08ZM2.49999 140.6L1.49999 140.6L1.49999 141.6L2.49999 141.6L2.49999 140.6ZM52.9 140.6L52.9 141.6L53.9 141.6L53.9 140.6L52.9 140.6ZM52.9 106.23L53.9 106.23L53.9 105.275L52.9461 105.231L52.9 106.23ZM46.775 105.915L46.72 106.914L46.7205 106.914L46.775 105.915ZM38.305 105.32L38.3874 104.324L38.3874 104.324L38.305 105.32ZM28.785 104.34L28.9064 103.348L28.9002 103.347L28.785 104.34ZM19.58 102.94L19.7686 101.958L19.7654 101.958L19.58 102.94ZM13.805 101.4L13.4226 102.324L13.4282 102.327L13.805 101.4ZM11.005 99.2304L10.1353 99.724L10.1396 99.7314L11.005 99.2304ZM10.41 95.8004L11.4079 95.8658L11.4777 94.8004L10.41 94.8004L10.41 95.8004ZM1.51894 95.6067C0.779227 99.353 0.844703 102.457 1.90463 104.789L3.72536 103.962C2.91862 102.187 2.7741 99.5745 3.48105 95.9941L1.51894 95.6067ZM1.90288 104.785C2.94512 107.104 4.74243 108.843 7.22009 110.006L8.0699 108.195C5.97423 107.211 4.55154 105.8 3.72711 103.965L1.90288 104.785ZM7.22009 110.006C9.60142 111.123 12.4965 112.008 15.8878 112.672L16.2722 110.709C12.9901 110.066 10.2619 109.224 8.0699 108.195L7.22009 110.006ZM15.8753 112.669C18.466 113.211 21.1375 113.67 23.8895 114.046L24.1605 112.065C21.4525 111.694 18.8273 111.243 16.2847 110.712L15.8753 112.669ZM23.8895 114.046C26.6303 114.421 29.2787 114.737 31.8346 114.995L32.0354 113.005C29.5047 112.75 26.8797 112.436 24.1605 112.065L23.8895 114.046ZM31.8346 114.995C34.3869 115.253 36.7201 115.452 38.8335 115.593L38.9665 113.598C36.8799 113.458 34.5698 113.261 32.0354 113.005L31.8346 114.995ZM38.8225 115.592C40.9235 115.756 42.6291 115.884 43.9388 115.978L44.0812 113.983C42.7775 113.89 41.0765 113.762 38.9775 113.598L38.8225 115.592ZM43.01 114.98L43.01 131.08L45.01 131.08L45.01 114.98L43.01 114.98ZM44.01 130.08L2.49999 130.08L2.49999 132.08L44.01 132.08L44.01 130.08ZM1.49999 131.08L1.49999 140.6L3.49999 140.6L3.49999 131.08L1.49999 131.08ZM2.49999 141.6L52.9 141.6L52.9 139.6L2.49999 139.6L2.49999 141.6ZM53.9 140.6L53.9 106.23L51.9 106.23L51.9 140.6L53.9 140.6ZM52.9461 105.231C51.4335 105.162 49.395 105.057 46.8295 104.917L46.7205 106.914C49.2884 107.054 51.3332 107.159 52.8539 107.229L52.9461 105.231ZM46.83 104.917C44.2975 104.778 41.4835 104.58 38.3874 104.324L38.2226 106.317C41.3331 106.574 44.1658 106.773 46.72 106.914L46.83 104.917ZM38.3874 104.324C35.2977 104.068 32.1374 103.743 28.9064 103.348L28.6636 105.333C31.9193 105.731 35.1056 106.059 38.2226 106.317L38.3874 104.324ZM28.9002 103.347C25.7026 102.976 22.6588 102.513 19.7686 101.958L19.3914 103.922C22.3345 104.488 25.4274 104.958 28.6698 105.334L28.9002 103.347ZM19.7654 101.958C17.3192 101.496 15.4688 100.998 14.1818 100.474L13.4282 102.327C14.8945 102.923 16.8941 103.451 19.3946 103.923L19.7654 101.958ZM14.1873 100.476C12.9525 99.9654 12.2351 99.3593 11.8704 98.7294L10.1396 99.7314C10.8015 100.875 11.9509 101.715 13.4226 102.324L14.1873 100.476ZM11.8747 98.7368C11.5146 98.1023 11.322 97.1754 11.4079 95.8658L9.41214 95.735C9.31135 97.2721 9.5154 98.6318 10.1353 99.724L11.8747 98.7368ZM10.41 94.8004L2.5 94.8004L2.5 96.8004L10.41 96.8004L10.41 94.8004ZM2.49999 156.453L2.94365 155.557L1.49999 154.842L1.49999 156.453L2.49999 156.453ZM2.49999 166.603L1.49999 166.603L1.49999 167.237L2.07299 167.507L2.49999 166.603ZM52.9 190.403L52.473 191.307L53.9 191.981L53.9 190.403L52.9 190.403ZM52.9 180.253L53.9 180.253L53.9 179.607L53.3109 179.342L52.9 180.253ZM26.65 168.423L26.2514 167.506L24.1795 168.407L26.2391 169.335L26.65 168.423ZM52.9 157.013L53.2986 157.93L53.9 157.669L53.9 157.013L52.9 157.013ZM52.9 146.233L53.9 146.233L53.9 144.651L52.471 145.33L52.9 146.233ZM16.64 163.453L16.1963 164.349L16.6309 164.565L17.069 164.357L16.64 163.453ZM1.49999 156.453L1.49999 166.603L3.49999 166.603L3.49999 156.453L1.49999 156.453ZM2.07299 167.507L52.473 191.307L53.327 189.499L2.927 165.699L2.07299 167.507ZM53.9 190.403L53.9 180.253L51.9 180.253L51.9 190.403L53.9 190.403ZM53.3109 179.342L27.0609 167.512L26.2391 169.335L52.4891 181.165L53.3109 179.342ZM27.0486 169.34L53.2986 157.93L52.5014 156.096L26.2514 167.506L27.0486 169.34ZM53.9 157.013L53.9 146.233L51.9 146.233L51.9 157.013L53.9 157.013ZM52.471 145.33L16.211 162.55L17.069 164.357L53.329 147.137L52.471 145.33ZM17.0837 162.557L2.94365 155.557L2.05633 157.349L16.1963 164.349L17.0837 162.557ZM2.49999 195.277L2.49999 194.277L1.49999 194.277L1.49999 195.277L2.49999 195.277ZM2.49999 204.797L1.49999 204.797L1.49999 205.797L2.49999 205.797L2.49999 204.797ZM44.01 204.797L45.01 204.797L45.01 203.797L44.01 203.797L44.01 204.797ZM44.01 228.177L43.01 228.177L43.01 229.177L44.01 229.177L44.01 228.177ZM52.9 228.177L52.9 229.177L53.9 229.177L53.9 228.177L52.9 228.177ZM52.9 195.277L53.9 195.277L53.9 194.277L52.9 194.277L52.9 195.277ZM1.49999 195.277L1.49999 204.797L3.49999 204.797L3.49999 195.277L1.49999 195.277ZM2.49999 205.797L44.01 205.797L44.01 203.797L2.49999 203.797L2.49999 205.797ZM43.01 204.797L43.01 228.177L45.01 228.177L45.01 204.797L43.01 204.797ZM44.01 229.177L52.9 229.177L52.9 227.177L44.01 227.177L44.01 229.177ZM53.9 228.177L53.9 195.277L51.9 195.277L51.9 228.177L53.9 228.177ZM52.9 194.277L2.49999 194.277L2.49999 196.277L52.9 196.277L52.9 194.277ZM2.49999 274.993L1.49999 274.993L1.49999 275.993L2.49999 275.993L2.49999 274.993ZM2.49999 265.333L2.49999 264.333L1.49999 264.333L1.49999 265.333L2.49999 265.333ZM36.1 265.333L36.1 266.333L39.4643 266.333L36.6462 264.496L36.1 265.333ZM2.49999 243.423L1.49999 243.423L1.49999 243.965L1.95377 244.261L2.49999 243.423ZM2.49999 233.763L2.49999 232.763L1.49999 232.763L1.49999 233.763L2.49999 233.763ZM52.9 233.763L53.9 233.763L53.9 232.763L52.9 232.763L52.9 233.763ZM52.9 243.423L52.9 244.423L53.9 244.423L53.9 243.423L52.9 243.423ZM19.3 243.423L19.3 242.423L15.9357 242.423L18.7538 244.261L19.3 243.423ZM52.9 265.333L53.9 265.333L53.9 264.792L53.4462 264.496L52.9 265.333ZM52.9 274.993L52.9 275.993L53.9 275.993L53.9 274.993L52.9 274.993ZM3.49999 274.993L3.49999 265.333L1.49999 265.333L1.49999 274.993L3.49999 274.993ZM2.49999 266.333L36.1 266.333L36.1 264.333L2.49999 264.333L2.49999 266.333ZM36.6462 264.496L3.0462 242.586L1.95377 244.261L35.5538 266.171L36.6462 264.496ZM3.49999 243.423L3.49999 233.763L1.49999 233.763L1.49999 243.423L3.49999 243.423ZM2.49999 234.763L52.9 234.763L52.9 232.763L2.49999 232.763L2.49999 234.763ZM51.9 233.763L51.9 243.423L53.9 243.423L53.9 233.763L51.9 233.763ZM52.9 242.423L19.3 242.423L19.3 244.423L52.9 244.423L52.9 242.423ZM18.7538 244.261L52.3538 266.171L53.4462 264.496L19.8462 242.586L18.7538 244.261ZM51.9 265.333L51.9 274.993L53.9 274.993L53.9 265.333L51.9 265.333ZM52.9 273.993L2.49999 273.993L2.49999 275.993L52.9 275.993L52.9 273.993Z" fill="#28272D"/>
</svg>

<svg width="55" height="276" fill="none" xmlns="http://www.w3.org/2000/svg">
    <path d="m2.5 12.42.444-.896-1.444-.715v1.611h1zm0 10.15h-1v.634l.573.27.427-.904zm50.4 23.8-.427.904 1.427.674V46.37h-1zm0-10.15h1v-.646l-.59-.266-.41.912zM26.65 24.39l-.399-.917-2.072.9 2.06.929.411-.912zM52.9 12.98l.399.917.601-.261v-.656h-1zm0-10.78h1V.618l-1.429.679.429.903zM16.64 19.42l-.444.896.435.215.438-.208-.429-.903zm-15.14-7v10.15h2V12.42h-2zm.573 11.054 50.4 23.8.854-1.808-50.4-23.8-.854 1.808zM53.9 46.37V36.22h-2v10.15h2zm-.59-11.062-26.25-11.83-.82 1.824 26.25 11.83.82-1.824zm-26.261-10 26.25-11.41-.798-1.835-26.25 11.41.798 1.834zM53.9 12.98V2.2h-2v10.78h2zM52.471 1.297l-36.26 17.22.858 1.806 36.26-17.22-.858-1.806zM17.084 18.524l-14.14-7-.888 1.792 14.14 7 .888-1.792zM5.755 84.63l.809-.588-.002-.003-.807.591zm11.655 8.33-.312.95.995.327.28-1.01-.963-.267zm2.66-9.59.964.267.26-.937-.93-.286-.294.956zm-7.105-4.725.793-.61-.793.61zm2.135-19.39-.607-.795-.006.005.613.79zm25.165 0 .61-.792-.61.792zm2.17 19.39-.793-.61-.004.006.797.604zm-7.105 4.725-.292-.956-.932.284.26.94.964-.268zm2.66 9.59-.964.267.28 1.01.996-.327-.312-.95zm11.655-8.33-.807-.59-.002.002.809.588zm1.015-27.615.858-.514-.002-.002-.856.516zm-9.205-8.435.45-.893-.005-.003-.445.896zm-27.51 0-.445-.896-.004.003.449.893zM4.74 57.016l-.857-.516-.001.002.858.514zM.45 70.071c0 5.957 1.48 11.029 4.498 15.15l1.614-1.18C3.84 80.322 2.45 75.686 2.45 70.07h-2zm4.496 15.148c3.001 4.124 7.065 7.02 12.152 8.692l.624-1.9c-4.713-1.548-8.42-4.205-11.158-7.968l-1.618 1.176zm13.428 8.01 2.66-9.59-1.928-.535-2.66 9.59 1.928.534zm1.99-10.814c-2.863-.88-5.046-2.348-6.606-4.378l-1.586 1.218c1.846 2.403 4.4 4.086 7.604 5.072l.588-1.912zm-6.606-4.378c-1.538-2.002-2.348-4.63-2.348-7.966h-2c0 3.664.894 6.753 2.762 9.184l1.586-1.218zM11.41 70.07c0-4.546 1.472-7.828 4.303-10.025l-1.226-1.58C11.065 61.122 9.41 65.05 9.41 70.071h2zm4.297-10.02c2.926-2.233 6.891-3.4 11.993-3.4v-2c-5.398 0-9.833 1.236-13.207 3.81l1.214 1.59zm11.993-3.4c5.102 0 9.054 1.167 11.956 3.398l1.218-1.586c-3.351-2.576-7.776-3.812-13.174-3.812v2zm11.955 3.397c2.853 2.198 4.335 5.48 4.335 10.023h2c0-5.023-1.668-8.952-5.115-11.607l-1.22 1.584zm4.335 10.023c0 3.336-.81 5.964-2.348 7.966l1.586 1.218c1.868-2.431 2.762-5.52 2.762-9.184h-2zm-2.352 7.971c-1.535 2.025-3.713 3.491-6.6 4.373l.584 1.912c3.227-.985 5.785-2.668 7.61-5.077l-1.594-1.208zm-7.272 5.596 2.66 9.59 1.928-.534-2.66-9.59-1.928.534zm3.936 10.273c5.087-1.671 9.15-4.569 12.151-8.692l-1.617-1.176c-2.739 3.763-6.445 6.42-11.158 7.968l.624 1.9zm12.15-8.69c3.018-4.121 4.498-9.193 4.498-15.15h-2c0 5.616-1.39 10.252-4.112 13.97l1.614 1.18zm4.498-15.15c0-5.188-1.13-9.724-3.432-13.569l-1.716 1.028c2.085 3.482 3.148 7.649 3.148 12.541h2zM51.516 56.5c-2.294-3.808-5.507-6.748-9.612-8.812l-.898 1.786c3.781 1.902 6.705 4.586 8.797 8.058l1.714-1.032zM41.9 47.685c-4.105-2.04-8.847-3.044-14.2-3.044v2c5.1 0 9.528.956 13.31 2.836l.89-1.791zm-14.2-3.044c-5.352 0-10.095 1.004-14.2 3.044l.89 1.791c3.782-1.88 8.21-2.835 13.31-2.835v-2zm-14.204 3.047C9.39 49.752 6.178 52.692 3.883 56.5l1.714 1.032c2.092-3.472 5.016-6.156 8.797-8.058l-.898-1.786zm-9.614 8.814C1.58 60.347.45 64.883.45 70.071h2c0-4.892 1.063-9.06 3.148-12.541l-1.716-1.028zM2.5 95.8v-1h-.822l-.16.807.982.193zm.315 8.575.912-.41-.002-.003-.91.413zm4.83 4.725-.425.906.425-.906zm8.435 2.59.205-.979-.013-.002-.192.981zm7.945 1.365-.135.991.135-.991zm7.91.945.1-.995-.1.995zm6.965.595.078-.997h-.011l-.067.997zm5.11.385h1v-.931l-.929-.066-.071.997zm0 16.1v1h1v-1h-1zm-41.51 0v-1h-1v1h1zm0 9.52h-1v1h1v-1zm50.4 0v1h1v-1h-1zm0-34.37h1v-.955l-.954-.044-.046.999zm-6.125-.315-.055.999.055-.999zm-8.47-.595.082-.996-.082.996zm-9.52-.98.121-.992-.006-.001-.115.993zm-9.205-1.4.189-.982h-.004l-.185.982zm-5.775-1.54-.382.924.005.003.377-.927zm-2.8-2.17-.87.494.005.007.865-.5zm-.595-3.43.998.066.07-1.066H10.41v1zm-8.891-.193c-.74 3.746-.674 6.85.386 9.182l1.82-.827c-.806-1.775-.95-4.388-.244-7.968l-1.962-.387zm.384 9.178c1.042 2.319 2.84 4.058 5.317 5.221l.85-1.811c-2.096-.984-3.518-2.395-4.343-4.23l-1.824.82zm5.317 5.221c2.381 1.117 5.276 2.002 8.668 2.666l.384-1.963c-3.282-.643-6.01-1.485-8.202-2.514l-.85 1.811zm8.655 2.663c2.591.542 5.262 1.001 8.015 1.377l.27-1.981a114.647 114.647 0 0 1-7.875-1.353l-.41 1.957zm8.015 1.377c2.74.375 5.389.691 7.945.949l.2-1.99c-2.53-.255-5.155-.569-7.874-.94l-.271 1.981zm7.945.949c2.552.258 4.885.457 6.998.598l.134-1.995c-2.087-.14-4.397-.337-6.932-.593l-.2 1.99zm6.987.597c2.101.164 3.807.292 5.117.386l.142-1.995a784.739 784.739 0 0 1-5.104-.385l-.154 1.994zm4.188-.612v16.1h2v-16.1h-2zm1 15.1H2.5v2h41.51v-2zm-42.51 1v9.52h2v-9.52h-2zm1 10.52h50.4v-2H2.5v2zm51.4-1v-34.37h-2v34.37h2zm-.954-35.369a726.388 726.388 0 0 1-6.116-.314l-.11 1.997c2.568.14 4.613.245 6.134.315l.092-1.998zm-6.116-.314a308.412 308.412 0 0 1-8.443-.593l-.164 1.993c3.11.257 5.943.456 8.497.597l.11-1.997zm-8.443-.593a244.58 244.58 0 0 1-9.48-.976l-.243 1.985c3.255.398 6.442.726 9.559.984l.164-1.993zm-9.487-.977a124.637 124.637 0 0 1-9.131-1.389l-.378 1.964a126.07 126.07 0 0 0 9.279 1.412l.23-1.987zm-9.135-1.389c-2.446-.462-4.296-.96-5.583-1.484l-.754 1.853c1.466.596 3.466 1.124 5.967 1.596l.37-1.965zm-5.578-1.482c-1.234-.51-1.952-1.117-2.317-1.747l-1.73 1.002c.662 1.144 1.81 1.984 3.283 2.593l.764-1.848zm-2.312-1.74c-.36-.634-.553-1.56-.467-2.87l-1.996-.131c-.1 1.537.103 2.897.723 3.989l1.74-.987zM10.41 94.8H2.5v2h7.91v-2zM2.5 156.453l.444-.896-1.444-.715v1.611h1zm0 10.15h-1v.634l.573.27.427-.904zm50.4 23.8-.427.904 1.427.674v-1.578h-1zm0-10.15h1v-.646l-.59-.265-.41.911zm-26.25-11.83-.399-.917-2.072.901 2.06.928.411-.912zm26.25-11.41.399.917.601-.261v-.656h-1zm0-10.78h1v-1.582l-1.429.679.429.903zm-36.26 17.22-.444.896.435.216.438-.208-.429-.904zm-15.14-7v10.15h2v-10.15h-2zm.573 11.054 50.4 23.8.854-1.808-50.4-23.8-.854 1.808zM53.9 190.403v-10.15h-2v10.15h2zm-.59-11.061-26.25-11.83-.82 1.823 26.25 11.83.82-1.823zM27.05 169.34l26.25-11.41-.798-1.834-26.25 11.41.798 1.834zM53.9 157.013v-10.78h-2v10.78h2zm-1.429-11.683-36.26 17.22.858 1.807 36.26-17.22-.858-1.807zm-35.387 17.227-14.14-7-.888 1.792 14.14 7 .888-1.792zM2.5 195.277v-1h-1v1h1zm0 9.52h-1v1h1v-1zm41.51 0h1v-1h-1v1zm0 23.38h-1v1h1v-1zm8.89 0v1h1v-1h-1zm0-32.9h1v-1h-1v1zm-51.4 0v9.52h2v-9.52h-2zm1 10.52h41.51v-2H2.5v2zm40.51-1v23.38h2v-23.38h-2zm1 24.38h8.89v-2h-8.89v2zm9.89-1v-32.9h-2v32.9h2zm-1-33.9H2.5v2h50.4v-2zM2.5 274.993h-1v1h1v-1zm0-9.66v-1h-1v1h1zm33.6 0v1h3.364l-2.818-1.837-.546.837zm-33.6-21.91h-1v.542l.454.296.546-.838zm0-9.66v-1h-1v1h1zm50.4 0h1v-1h-1v1zm0 9.66v1h1v-1h-1zm-33.6 0v-1h-3.364l2.818 1.838.546-.838zm33.6 21.91h1v-.541l-.454-.296-.546.837zm0 9.66v1h1v-1h-1zm-49.4 0v-9.66h-2v9.66h2zm-1-8.66h33.6v-2H2.5v2zm34.146-1.837-33.6-21.91-1.092 1.675 33.6 21.91 1.092-1.675zM3.5 243.423v-9.66h-2v9.66h2zm-1-8.66h50.4v-2H2.5v2zm49.4-1v9.66h2v-9.66h-2zm1 8.66H19.3v2h33.6v-2zm-34.146 1.838 33.6 21.91 1.092-1.675-33.6-21.91-1.092 1.675zM51.9 265.333v9.66h2v-9.66h-2zm1 8.66H2.5v2h50.4v-2z" fill="#28272D"/>
</svg>
